X: 1
T: Vivre
C: Se\'ephane Delicq
R: waltz \`a 5 temps
Z: 2015 John Chambers <jc:trillian.mit.edu>
M: 5/4
L: 1/4
K: Am
|:\
"Am"[ec][ec]z "(G)"[dB][dB] | "Am"[cA][cA]z "(G)"[BD][BD] |\
"Am(F)"[AC][AC]z "G"[GB,][GB,] | "C"[E3-C3-] [E2C2] :|
[|\
"F"[a3f3] "G"[ge][ge] | "F"[a3f3] "G"[ge][ge] |\
"F"[a3f3] "G"[ge][ge] | "C"[e3-c3-] [e2c2] ||
||\
"Dm"[f2d2][ec] [fd][ec] | "Am"[dB][c2A2] [cA][dB] |\
"E"[cE][B2D2] [BD][cE] | "Am"[A3-C3-] [A2C2] |]
